X:1
T:Title
L:1/8
M:2/2
I:linebreak $
K:D
V:1 treble nm="Voice" snm="Voice"
V:1
|: AB | d2 dA BAFA | ABdA BAFA | ABde fded | Beed egfe |$ d2 dA BAFA | A2 FA BAFA | ABde fedB | %8
 AFEF D2 ::$ fg | a2 a2 g2 f3 | dedA BAFA | ABde f2 ed | Beed efge |$ abag fgfe | d3 A BAFA | %16
 ABde fedB | AFEF D2 :| %18
